packages/web/src/assets/images/icons/open-canvas.svg

<svg fill="none" height="12" viewBox="0 0 18 12" width="18" xmlns="http://www.w3.org/2000/svg"><path d="m17.625.25v1.4375h-12.45833v-1.4375zm-16.24375 1.24583 4.52813 4.52813-4.50417 4.50414-1.03021-1.03018 3.47396-3.47396-3.497918-3.49792zm16.24375 3.83334v1.4375h-9.58333v-1.4375zm0 4.98333v1.4375h-12.45833v-1.4375z" fill="#606266"/></svg>

<svg width="18" height="12" viewBox="0 0 18 12" fill="none" xmlns="http://www.w3.org/2000/svg">
    <path d="M17.625 0.25V1.6875L5.16667 1.6875V0.25L17.625 0.25ZM1.38125 1.49583L5.90938 6.02396L1.40521 10.5281L0.375 9.49792L3.84896 6.02396L0.351042 2.52604L1.38125 1.49583ZM17.625 5.32917V6.76667L8.04167 6.76667V5.32917L17.625 5.32917ZM17.625 10.3125V11.75L5.16667 11.75V10.3125L17.625 10.3125Z" fill="#606266"/>
</svg>
